X:38
T:Don't You Dare
T:Use "Party" as a Verb
F:Dont_You_Dare
R:hornpipe
C:Simon Dew
M:C|
L:1/8
Q:1/2=80
K:Am
P:A
(3e^f^g|\
"Am"a2 A2 "D"d2- d>e|"E7"c>d c>B "Am"A2 A>B|"F"c>B c>d- "Bm7b5"d>A e2|"E7"f2 e2- e2 (3e^f^g|
"Am"a2 A2 "D"d2- d>e|"E7"c>d c>B "Am"A2 A>B|"F"c>B c>d "Bm7b5"e>c A2|"E7"E2 "Am"A2- A2:|
P:B
|:A>_A|\
"G"G2 g2 "G/B"g2- g>f|"C"e>f e>d c2 G>^G|"F"A2 f2 "Bm7b5"f>e d>c|"E7"B2 e2- e2 (3e^f^g|
"Am"a2 A2 "D"d2- d>e|"E7"c>d cB "Am"A2 A>B|"F"c>B c>d "Bm7b5"e>c A2|"E7"E2 "Am"A2- A2:|

